**harm	**harte	**timestamp	**phrase	**leadinstrument	**kern
*M4/4	*M4/4	*	*	*	*
*E-:	*E-:	*	*	*	*E-:
1r;	N	0	.	r	1r;
1r;	N	0.029	.	r	1r;
=1	=1	=1	=1	=1	=1
*>A_intro	*>A_intro	*>A_intro	*>A_intro	*>A_intro	*>A_intro
1r	N	0.325	newline	synthesizer	1r
=2	=2	=2	=2	=2	=2
1r	N	1.91	newline	synthesizer	1r
=3	=3	=3	=3	=3	=3
1im7	E-:min7	6.844	.	synthesizer	1E- 1g- 1b- 1dd
=4	=4	=4	=4	=4	=4
1im7	E-:min7	9.311	.	synthesizer	1E- 1g- 1b- 1dd
=5	=5	=5	=5	=5	=5
1im7	E-:min7	11.778	newline	synthesizer	1E- 1g- 1b- 1dd
=6	=6	=6	=6	=6	=6
1im7	E-:min7	14.268	.	synthesizer	1E- 1g- 1b- 1dd
=7	=7	=7	=7	=7	=7
1im7	E-:min7	16.757	.	synthesizer	1E- 1g- 1b- 1dd
=8	=8	=8	=8	=8	=8
1im7	E-:min7	19.247	.	synthesizer	1E- 1g- 1b- 1dd
=9	=9	=9	=9	=9	=9
*>B_instrumental	*>B_instrumental	*>B_instrumental	*>B_instrumental	*>B_instrumental	*>B_instrumental
1im7	E-:min7	21.736	newline	synthesizer	1E- 1g- 1b- 1dd
=10	=10	=10	=10	=10	=10
1IVm7c	A-:7/5	24.24	.	synthesizer	1a- 1cc 1E- 1gg
=11	=11	=11	=11	=11	=11
1im7	E-:min7	26.743	.	synthesizer	1E- 1g- 1b- 1dd
=12	=12	=12	=12	=12	=12
1IVm7c	A-:7/5	29.246	.	synthesizer	1a- 1cc 1E- 1gg
=13	=13	=13	=13	=13	=13
1im7	E-:min7	31.749	newline	synthesizer	1E- 1g- 1b- 1dd
=14	=14	=14	=14	=14	=14
1IVm7c	A-:7/5	34.287	.	synthesizer	1a- 1cc 1E- 1gg
=15	=15	=15	=15	=15	=15
1im7	E-:min7	36.825	.	synthesizer	1E- 1g- 1b- 1dd
=16	=16	=16	=16	=16	=16
1IVm7c	A-:7/5	39.363	.	synthesizer	1a- 1cc 1E- 1gg
=17	=17	=17	=17	=17	=17
*>B_chorus	*>B_chorus	*>B_chorus	*>B_chorus	*>B_chorus	*>B_chorus
1im7	E-:min7	41.9	newline	voice	1E- 1g- 1b- 1dd
=18	=18	=18	=18	=18	=18
1IVm7	A-:7	44.469	.	voice	1A- 1cc 1ee- 1gg
=19	=19	=19	=19	=19	=19
1im7	E-:min7	47.037	.	voice	1E- 1g- 1b- 1dd
=20	=20	=20	=20	=20	=20
1IVm7	A-:7	49.605	.	voice	1A- 1cc 1ee- 1gg
=21	=21	=21	=21	=21	=21
1im7	E-:min7	52.173	newline	voice	1E- 1g- 1b- 1dd
=22	=22	=22	=22	=22	=22
1IVm7	A-:7	54.746	.	voice	1A- 1cc 1ee- 1gg
=23	=23	=23	=23	=23	=23
1im7	E-:min7	57.319	.	voice	1E- 1g- 1b- 1dd
=24	=24	=24	=24	=24	=24
1IVm7	A-:7	59.892	.	voice	1A- 1cc 1ee- 1gg
=25	=25	=25	=25	=25	=25
1im7	E-:min7	62.465	newline	voice	1E- 1g- 1b- 1dd
=26	=26	=26	=26	=26	=26
1IVm7	A-:7	65.035	.	voice	1A- 1cc 1ee- 1gg
=27	=27	=27	=27	=27	=27
1im7	E-:min7	67.604	.	voice	1E- 1g- 1b- 1dd
=28	=28	=28	=28	=28	=28
4IVm7	A-:7	70.174	.	voice	4A- 4cc 4ee- 4gg
4-IIIm7	G-:7	70.816	.	voice	4G- 4b- 4dd- 4ff
4II7	F:7	71.459	.	voice	4F 4a 4cc 4ee-
4#I7	E:7	72.101	.	voice	4E 4g# 4b 4dd
=29	=29	=29	=29	=29	=29
*>C_verse	*>C_verse	*>C_verse	*>C_verse	*>C_verse	*>C_verse
1im7	E-:min7	72.743	newline	voice	1E- 1g- 1b- 1dd
=30	=30	=30	=30	=30	=30
2im7	E-:min7	75.313	.	voice	2E- 2g- 2b- 2dd
2IVm7d	A-:7/b7	76.598	.	voice	2a- 2cc 2ee- 2G
=31	=31	=31	=31	=31	=31
1im7	E-:min7	77.883	.	voice	1E- 1g- 1b- 1dd
=32	=32	=32	=32	=32	=32
1im7	E-:min7	80.453	.	voice	1E- 1g- 1b- 1dd
=33	=33	=33	=33	=33	=33
1im7	E-:min7	83.023	newline	voice	1E- 1g- 1b- 1dd
=34	=34	=34	=34	=34	=34
2im7	E-:min7	85.626	.	voice	2E- 2g- 2b- 2dd
2IVm7d	A-:7/b7	86.927	.	voice	2a- 2cc 2ee- 2G
=35	=35	=35	=35	=35	=35
1im7	E-:min7	88.228	.	voice	1E- 1g- 1b- 1dd
=36	=36	=36	=36	=36	=36
1im7	E-:min7	90.831	.	voice	1E- 1g- 1b- 1dd
=37	=37	=37	=37	=37	=37
*>B_chorus	*>B_chorus	*>B_chorus	*>B_chorus	*>B_chorus	*>B_chorus
1im7	E-:min7	93.434	newline	voice	1E- 1g- 1b- 1dd
=38	=38	=38	=38	=38	=38
1IVm7	A-:7	96.033	.	voice	1A- 1cc 1ee- 1gg
=39	=39	=39	=39	=39	=39
1im7	E-:min7	98.632	.	voice	1E- 1g- 1b- 1dd
=40	=40	=40	=40	=40	=40
1IVm7	A-:7	101.231	.	voice	1A- 1cc 1ee- 1gg
=41	=41	=41	=41	=41	=41
1im7	E-:min7	103.83	newline	voice	1E- 1g- 1b- 1dd
=42	=42	=42	=42	=42	=42
1IVm7	A-:7	106.424	.	voice	1A- 1cc 1ee- 1gg
=43	=43	=43	=43	=43	=43
1im7	E-:min7	109.018	.	voice	1E- 1g- 1b- 1dd
=44	=44	=44	=44	=44	=44
4IVm7	A-:7	111.612	.	voice	4A- 4cc 4ee- 4gg
4-IIIm7	G-:7	112.261	.	voice	4G- 4b- 4dd- 4ff
4II7	F:7	112.909	.	voice	4F 4a 4cc 4ee-
4#I7	E:7	113.558	.	voice	4E 4g# 4b 4dd
=45	=45	=45	=45	=45	=45
*>A2_trans	*>A2_trans	*>A2_trans	*>A2_trans	*>A2_trans	*>A2_trans
1im7	E-:min7	114.206	newline	trumpet	1E- 1g- 1b- 1dd
=46	=46	=46	=46	=46	=46
1im7	E-:min7	116.783	.	trumpet	1E- 1g- 1b- 1dd
=47	=47	=47	=47	=47	=47
1im7	E-:min7	119.36	.	trumpet	1E- 1g- 1b- 1dd
=48	=48	=48	=48	=48	=48
1im7	E-:min7	121.937	.	trumpet	1E- 1g- 1b- 1dd
=49	=49	=49	=49	=49	=49
1II7	F:7	124.513	newline	trumpet	1F 1a 1cc 1ee-
=50	=50	=50	=50	=50	=50
1V	B-:maj	127.109	.	trumpet	1B- 1dd 1ff
=51	=51	=51	=51	=51	=51
*>B2_solo	*>B2_solo	*>B2_solo	*>B2_solo	*>B2_solo	*>B2_solo
1im7	E-:min7	129.705	newline	guitar	1E- 1g- 1b- 1dd
=52	=52	=52	=52	=52	=52
1IVm7	A-:7	132.305	.	guitar	1A- 1cc 1ee- 1gg
=53	=53	=53	=53	=53	=53
1im7	E-:min7	134.905	.	guitar	1E- 1g- 1b- 1dd
=54	=54	=54	=54	=54	=54
1IVm7	A-:7	137.505	.	guitar	1A- 1cc 1ee- 1gg
=55	=55	=55	=55	=55	=55
1im7	E-:min7	140.105	newline	guitar	1E- 1g- 1b- 1dd
=56	=56	=56	=56	=56	=56
1IVm7	A-:7	142.682	.	guitar	1A- 1cc 1ee- 1gg
=57	=57	=57	=57	=57	=57
1im7	E-:min7	145.259	.	guitar	1E- 1g- 1b- 1dd
=58	=58	=58	=58	=58	=58
1IVm7	A-:7	147.836	.	guitar	1A- 1cc 1ee- 1gg
=59	=59	=59	=59	=59	=59
1im7	E-:min7	150.413	newline	guitar	1E- 1g- 1b- 1dd
=60	=60	=60	=60	=60	=60
1IVm7	A-:7	152.983	.	guitar	1A- 1cc 1ee- 1gg
=61	=61	=61	=61	=61	=61
1im7	E-:min7	155.552	.	guitar	1E- 1g- 1b- 1dd
=62	=62	=62	=62	=62	=62
1IVm7	A-:7	158.121	.	guitar	1A- 1cc 1ee- 1gg
=63	=63	=63	=63	=63	=63
1im7	E-:min7	160.691	newline	guitar	1E- 1g- 1b- 1dd
=64	=64	=64	=64	=64	=64
1IVm7	A-:7	163.281	.	guitar	1A- 1cc 1ee- 1gg
=65	=65	=65	=65	=65	=65
1im7	E-:min7	165.871	.	guitar	1E- 1g- 1b- 1dd
=66	=66	=66	=66	=66	=66
1IVm7	A-:7	168.46	.	guitar	1A- 1cc 1ee- 1gg
=67	=67	=67	=67	=67	=67
1im7	E-:min7	171.05	newline	guitar	1E- 1g- 1b- 1dd
=68	=68	=68	=68	=68	=68
1IVm7	A-:7	173.658	.	guitar	1A- 1cc 1ee- 1gg
=69	=69	=69	=69	=69	=69
1im7	E-:min7	176.266	.	guitar	1E- 1g- 1b- 1dd
=70	=70	=70	=70	=70	=70
1IVm7	A-:7	178.873	.	guitar	1A- 1cc 1ee- 1gg
=71	=71	=71	=71	=71	=71
1im7	E-:min7	181.481	newline	guitar	1E- 1g- 1b- 1dd
=72	=72	=72	=72	=72	=72
1IVm7	A-:7	184.092	.	guitar	1A- 1cc 1ee- 1gg
=73	=73	=73	=73	=73	=73
1im7	E-:min7	186.703	.	guitar	1E- 1g- 1b- 1dd
=74	=74	=74	=74	=74	=74
1IVm7	A-:7	189.313	.	guitar	1A- 1cc 1ee- 1gg
=75	=75	=75	=75	=75	=75
1im7	E-:min7	191.924	newline	guitar	1E- 1g- 1b- 1dd
=76	=76	=76	=76	=76	=76
1IVm7	A-:7	194.551	.	guitar	1A- 1cc 1ee- 1gg
=77	=77	=77	=77	=77	=77
1im7	E-:min7	197.179	.	guitar	1E- 1g- 1b- 1dd
=78	=78	=78	=78	=78	=78
4IVm7	A-:7	199.806	.	guitar	4A- 4cc 4ee- 4gg
4-IIIm7	G-:7	200.463	.	guitar	4G- 4b- 4dd- 4ff
4II7	F:7	201.12	.	guitar	4F 4a 4cc 4ee-
4#I7	E:7	201.777	.	guitar	4E 4g# 4b 4dd
=79	=79	=79	=79	=79	=79
*>C_verse	*>C_verse	*>C_verse	*>C_verse	*>C_verse	*>C_verse
1im7	E-:min7	202.434	newline	voice	1E- 1g- 1b- 1dd
=80	=80	=80	=80	=80	=80
2im7	E-:min7	205.039	.	voice	2E- 2g- 2b- 2dd
2IVm7d	A-:7/b7	206.341	.	voice	2a- 2cc 2ee- 2G
=81	=81	=81	=81	=81	=81
1im7	E-:min7	207.644	.	voice	1E- 1g- 1b- 1dd
=82	=82	=82	=82	=82	=82
1im7	E-:min7	210.249	.	voice	1E- 1g- 1b- 1dd
=83	=83	=83	=83	=83	=83
1im7	E-:min7	212.854	newline	voice	1E- 1g- 1b- 1dd
=84	=84	=84	=84	=84	=84
2im7	E-:min7	215.481	.	voice	2E- 2g- 2b- 2dd
2IVm7d	A-:7/b7	216.794	.	voice	2a- 2cc 2ee- 2G
=85	=85	=85	=85	=85	=85
1im7	E-:min7	218.108	.	voice	1E- 1g- 1b- 1dd
=86	=86	=86	=86	=86	=86
1im7	E-:min7	220.735	.	voice	1E- 1g- 1b- 1dd
=87	=87	=87	=87	=87	=87
*>B_chorus	*>B_chorus	*>B_chorus	*>B_chorus	*>B_chorus	*>B_chorus
1im7	E-:min7	223.362	newline	voice	1E- 1g- 1b- 1dd
=88	=88	=88	=88	=88	=88
1IVm7	A-:7	225.963	.	voice	1A- 1cc 1ee- 1gg
=89	=89	=89	=89	=89	=89
1im7	E-:min7	228.563	.	voice	1E- 1g- 1b- 1dd
=90	=90	=90	=90	=90	=90
1IVm7	A-:7	231.164	.	voice	1A- 1cc 1ee- 1gg
=91	=91	=91	=91	=91	=91
1im7	E-:min7	233.765	newline	voice	1E- 1g- 1b- 1dd
=92	=92	=92	=92	=92	=92
1IVm7	A-:7	236.367	.	voice	1A- 1cc 1ee- 1gg
=93	=93	=93	=93	=93	=93
1im7	E-:min7	238.97	.	voice	1E- 1g- 1b- 1dd
=94	=94	=94	=94	=94	=94
1IVm7	A-:7	241.572	.	voice	1A- 1cc 1ee- 1gg
=95	=95	=95	=95	=95	=95
1im7	E-:min7	244.175	newline	voice	1E- 1g- 1b- 1dd
=96	=96	=96	=96	=96	=96
1IVm7	A-:7	246.784	.	voice	1A- 1cc 1ee- 1gg
=97	=97	=97	=97	=97	=97
1im7	E-:min7	249.394	.	voice	1E- 1g- 1b- 1dd
=98	=98	=98	=98	=98	=98
1IVm7	A-:7	252.003	.	voice	1A- 1cc 1ee- 1gg
=99	=99	=99	=99	=99	=99
1im7	E-:min7	254.612	newline	voice	1E- 1g- 1b- 1dd
=100	=100	=100	=100	=100	=100
1IVm7	A-:7	257.193	.	voice	1A- 1cc 1ee- 1gg
=101	=101	=101	=101	=101	=101
1im7	E-:min7	259.774	.	voice	1E- 1g- 1b- 1dd
=102	=102	=102	=102	=102	=102
1IVm7	A-:7	262.355	.	voice	1A- 1cc 1ee- 1gg
=103	=103	=103	=103	=103	=103
*>B_chorus	*>B_chorus	*>B_chorus	*>B_chorus	*>B_chorus	*>B_chorus
1im7	E-:min7	264.936	newline	voice	1E- 1g- 1b- 1dd
=104	=104	=104	=104	=104	=104
1IVm7	A-:7	267.531	.	voice	1A- 1cc 1ee- 1gg
=105	=105	=105	=105	=105	=105
1im7	E-:min7	270.126	.	voice	1E- 1g- 1b- 1dd
=106	=106	=106	=106	=106	=106
1IVm7	A-:7	272.721	.	voice	1A- 1cc 1ee- 1gg
=107	=107	=107	=107	=107	=107
1im7	E-:min7	275.316	newline	voice	1E- 1g- 1b- 1dd
=108	=108	=108	=108	=108	=108
1IVm7	A-:7	277.929	.	voice	1A- 1cc 1ee- 1gg
=109	=109	=109	=109	=109	=109
1im7	E-:min7	280.541	.	voice	1E- 1g- 1b- 1dd
=110	=110	=110	=110	=110	=110
1IVm7	A-:7	283.153	.	voice	1A- 1cc 1ee- 1gg
=111	=111	=111	=111	=111	=111
1im7	E-:min7	285.765	newline	guitar	1E- 1g- 1b- 1dd
=112	=112	=112	=112	=112	=112
1IVm7	A-:7	288.362	.	guitar	1A- 1cc 1ee- 1gg
=113	=113	=113	=113	=113	=113
1im7	E-:min7	290.959	.	guitar	1E- 1g- 1b- 1dd
=114	=114	=114	=114	=114	=114
1IVm7	A-:7	293.555	.	guitar	1A- 1cc 1ee- 1gg
=115	=115	=115	=115	=115	=115
1im7	E-:min7	296.152	newline	guitar	1E- 1g- 1b- 1dd
=116	=116	=116	=116	=116	=116
1IVm7	A-:7	298.766	.	guitar	1A- 1cc 1ee- 1gg
=117	=117	=117	=117	=117	=117
1im7	E-:min7	301.381	.	guitar	1E- 1g- 1b- 1dd
=118	=118	=118	=118	=118	=118
4IVm7	A-:7	303.995	.	guitar	4A- 4cc 4ee- 4gg
4-IIIm7	G-:7	304.649	.	guitar	4G- 4b- 4dd- 4ff
4II7	F:7	305.302	.	guitar	4F 4a 4cc 4ee-
4#I7	E:7	305.956	.	guitar	4E 4g# 4b 4dd
=119	=119	=119	=119	=119	=119
*>C2_coda	*>C2_coda	*>C2_coda	*>C2_coda	*>C2_coda	*>C2_coda
1im7	E-:min7	306.61	newline	guitar	1E- 1g- 1b- 1dd
=120	=120	=120	=120	=120	=120
2im7	E-:min7	309.196	.	guitar	2E- 2g- 2b- 2dd
2IVm7d	A-:7/b7	310.489	.	guitar	2a- 2cc 2ee- 2G
=121	=121	=121	=121	=121	=121
1im7	E-:min7	311.782	.	guitar	1E- 1g- 1b- 1dd
=122	=122	=122	=122	=122	=122
1im7	E-:min7	314.368	.	guitar	1E- 1g- 1b- 1dd
=123	=123	=123	=123	=123	=123
1im7	E-:min7	316.954	newline	guitar	1E- 1g- 1b- 1dd
=124	=124	=124	=124	=124	=124
2im7	E-:min7	319.515	.	guitar	2E- 2g- 2b- 2dd
2IVm7d	A-:7/b7	320.795	.	guitar	2a- 2cc 2ee- 2G
1r;	N	322.076	.	r	1r;
1r;	N	331.999	.	r	1r;
1r;	N	335.02	.	r	1r;
*-	*-	*-	*-	*-	*-
!!!OTL: Right Place Wrong Time
!!!COC: Dr. John
!!!BillboardChartDate: 1973/06/16
!!!BillboardPeak: 9
!!!BillboardWeeksOnChart: 20
!!!SampleTargetRank: 13
!!!SampleActualRank: 11
!!!SampleID#: 0483
!!!RDF**harmony: **recip + pitch class of root + harmonic quality
!!!RDF**harte: Chris Harte's syntax, used by MIREX
!!!RDF**phrase: newline = linebreak in original McGill transcription
!!!RDF**timestamp: McGill audio timestamp in seconds
!!!RDF**leadinstrument: original McGill primary instrumentation annotation
!!!RDT: 2017/01/12/
!!!ENC: Nathaniel Condit-Schultz
!!!EST: Awating manual error checking and editing.
